www/assets/images/test_icons/flags/MR.svg

<svg fill="none" height="15" viewBox="0 0 21 15" width="21" xmlns="http://www.w3.org/2000/svg" xmlns:xlink="http://www.w3.org/1999/xlink"><mask id="a" height="15" maskUnits="userSpaceOnUse" width="21" x="0" y="0"><path d="m19 0h-17c-1.10457 0-2 .89543-2 2v11c0 1.1046.89543 2 2 2h17c1.1046 0 2-.8954 2-2v-11c0-1.10457-.8954-2-2-2z" fill="#fff"/></mask><g mask="url(#a)"><path d="m19 0h-17c-1.10457 0-2 .89543-2 2v11c0 1.1046.89543 2 2 2h17c1.1046 0 2-.8954 2-2v-11c0-1.10457-.8954-2-2-2z" fill="#006331"/><path clip-rule="evenodd" d="m10.498 7.25-1.47.773.27999-1.637-1.18799-1.16 1.64299-.237.73501-1.49.734 1.49 1.643.237-1.19 1.16.282 1.636" fill="#ffc500" fill-rule="evenodd"/><path clip-rule="evenodd" d="m14.965 5.938c.023.184.035.372.035.562 0 2.485-2.015 4.5-4.5 4.5s-4.5-2.015-4.5-4.5c0-.19.012-.378.035-.563.277 1.728 2.17 3.063 4.465 3.063s4.188-1.336 4.465-3.063z" fill="#ffc500" fill-rule="evenodd"/><path d="m19 .5h-17c-.82843 0-1.5.67157-1.5 1.5v11c0 .8284.67157 1.5 1.5 1.5h17c.8284 0 1.5-.6716 1.5-1.5v-11c0-.82843-.6716-1.5-1.5-1.5z" stroke="#000" stroke-opacity=".1"/></g></svg>

<svg width="21" height="15" viewBox="0 0 21 15" fill="none" xmlns="http://www.w3.org/2000/svg">
<mask id="mask0_3_92" style="mask-type:alpha" maskUnits="userSpaceOnUse" x="0" y="0" width="21" height="15">
<path d="M19 0H2C0.89543 0 0 0.89543 0 2V13C0 14.1046 0.89543 15 2 15H19C20.1046 15 21 14.1046 21 13V2C21 0.89543 20.1046 0 19 0Z" fill="white"/>
</mask>
<g mask="url(#mask0_3_92)">
<path d="M19 0H2C0.89543 0 0 0.89543 0 2V13C0 14.1046 0.89543 15 2 15H19C20.1046 15 21 14.1046 21 13V2C21 0.89543 20.1046 0 19 0Z" fill="#006331"/>
<path fill-rule="evenodd" clip-rule="evenodd" d="M10.498 7.25L9.028 8.023L9.30799 6.386L8.12 5.226L9.76299 4.989L10.498 3.499L11.232 4.989L12.875 5.226L11.685 6.386L11.967 8.022" fill="#FFC500"/>
<path fill-rule="evenodd" clip-rule="evenodd" d="M14.965 5.938C14.988 6.122 15 6.31 15 6.5C15 8.985 12.985 11 10.5 11C8.015 11 6 8.985 6 6.5C6 6.31 6.012 6.122 6.035 5.937C6.312 7.665 8.205 9 10.5 9C12.795 9 14.688 7.664 14.965 5.937V5.938Z" fill="#FFC500"/>
<path d="M19 0.5H2C1.17157 0.5 0.5 1.17157 0.5 2V13C0.5 13.8284 1.17157 14.5 2 14.5H19C19.8284 14.5 20.5 13.8284 20.5 13V2C20.5 1.17157 19.8284 0.5 19 0.5Z" stroke="black" stroke-opacity="0.1"/>
</g>
</svg>
